svgs/light/square-this-way-up.svg

<svg xmlns="http://www.w3.org/2000/svg" viewBox="0 0 448 512"><!--! Font Awesome Pro 6.4.2 by @fontawesome - https://fontawesome.com License - https://fontawesome.com/license (Commercial License) Copyright 2023 Fonticons, Inc. --><path d="M64 64C46.3 64 32 78.3 32 96V416c0 17.7 14.3 32 32 32H384c17.7 0 32-14.3 32-32V96c0-17.7-14.3-32-32-32H64zM0 96C0 60.7 28.7 32 64 32H384c35.3 0 64 28.7 64 64V416c0 35.3-28.7 64-64 64H64c-35.3 0-64-28.7-64-64V96zM112 368H336c8.8 0 16 7.2 16 16s-7.2 16-16 16H112c-8.8 0-16-7.2-16-16s7.2-16 16-16zm32-256c4.6 0 9 2 12 5.5l56 64c5.8 6.7 5.1 16.8-1.5 22.6s-16.8 5.1-22.6-1.5l-28-32V304c0 8.8-7.2 16-16 16s-16-7.2-16-16V170.6l-28 32c-5.8 6.7-15.9 7.3-22.6 1.5s-7.3-15.9-1.5-22.6l56-64c3-3.5 7.4-5.5 12-5.5zm160 0c4.6 0 9 2 12 5.5l56 64c5.8 6.7 5.1 16.8-1.5 22.6s-16.8 5.1-22.6-1.5l-28-32V304c0 8.8-7.2 16-16 16s-16-7.2-16-16V170.6l-28 32c-5.8 6.7-15.9 7.3-22.6 1.5s-7.3-15.9-1.5-22.6l56-64c3-3.5 7.4-5.5 12-5.5z"/></svg>

<svg xmlns="http://www.w3.org/2000/svg" viewBox="0 0 448 512"><!--! Font Awesome Pro 6.1.1 by @fontawesome - https://fontawesome.com License - https://fontawesome.com/license (Commercial License) Copyright 2022 Fonticons, Inc. --><path d="M336 368C344.8 368 352 375.2 352 384C352 392.8 344.8 400 336 400H112C103.2 400 96 392.8 96 384C96 375.2 103.2 368 112 368H336zM144 112C148.6 112 153 113.1 156 117.5L212 181.5C217.9 188.1 217.2 198.2 210.5 204C203.9 209.9 193.8 209.2 187.1 202.5L160 170.6V304C160 312.8 152.8 320 144 320C135.2 320 128 312.8 128 304V170.6L100 202.5C94.22 209.2 84.11 209.9 77.46 204C70.81 198.2 70.14 188.1 75.96 181.5L131.1 117.5C134.1 113.1 139.4 112 144 112zM304 112C308.6 112 313 113.1 316 117.5L372 181.5C377.9 188.1 377.2 198.2 370.5 204C363.9 209.9 353.8 209.2 347.1 202.5L320 170.6V304C320 312.8 312.8 320 304 320C295.2 320 288 312.8 288 304V170.6L260 202.5C254.2 209.2 244.1 209.9 237.5 204C230.8 198.2 230.1 188.1 235.1 181.5L291.1 117.5C294.1 113.1 299.4 112 304 112zM0 96C0 60.65 28.65 32 64 32H384C419.3 32 448 60.65 448 96V416C448 451.3 419.3 480 384 480H64C28.65 480 0 451.3 0 416V96zM32 96V416C32 433.7 46.33 448 64 448H384C401.7 448 416 433.7 416 416V96C416 78.33 401.7 64 384 64H64C46.33 64 32 78.33 32 96z"/></svg>
